X: 2370
T: Baitheadh Bhrioclais
R: jig
M: 6/8
K: Gmajor
|:g|fed efg|dge dBG|ABA A2D|AcB A2g|
fed efg|dge dBG|AGA B2A|1 ~G3 G2:|2 G3 GBd||
|:c3 e2c|~B3 d2B|ABA A2D|AcB ABd|
c3 e2c|~B3 d2B|AGA B2A|1 G3 GBd:|2 ~G3 G2||

